src/components/00-materials/images-raw/Amputation.svg

<svg width="96" height="96" viewBox="0 0 96 96" fill="none" xmlns="http://www.w3.org/2000/svg">
<path d="M48.44 11C47.0711 10.9667 45.723 11.3402 44.5665 12.0734C43.41 12.8066 42.497 13.8664 41.9431 15.1187C41.3892 16.3711 41.2193 17.7596 41.4549 19.1085C41.6905 20.4574 42.321 21.7061 43.2666 22.6965C44.2121 23.6869 45.4303 24.3746 46.7669 24.6723C48.1035 24.9701 49.4983 24.8646 50.775 24.3693C52.0516 23.8739 53.1525 23.011 53.9384 21.8896C54.7244 20.7683 55.1599 19.439 55.19 18.07C55.2303 16.2379 54.5422 14.4647 53.2768 13.1393C52.0114 11.8139 50.272 11.0445 48.44 11V11Z" stroke="#00008F" stroke-width="2" stroke-miterlimit="10"/>
<path d="M57.9 29H38.66C37.8327 28.9967 37.0314 29.2891 36.4006 29.8245C35.7699 30.3599 35.3512 31.1031 35.22 31.92L31.22 50.21C31.1853 50.3512 31.1853 50.4987 31.22 50.64C31.2101 50.7998 31.2101 50.9601 31.22 51.12C31.1793 51.5796 31.2295 52.0427 31.3678 52.483C31.5061 52.9232 31.7297 53.3318 32.026 53.6856C32.6242 54.4002 33.4818 54.8478 34.41 54.93C35.3383 55.0122 36.2612 54.7223 36.9757 54.124C37.3295 53.8278 37.6215 53.4648 37.835 53.0558C38.0485 52.6467 38.1793 52.1996 38.22 51.74L40.95 38.16V67.16C40.9136 67.6418 40.977 68.126 41.1364 68.5823C41.2958 69.0385 41.5476 69.4569 41.8762 69.8112C42.2047 70.1656 42.6029 70.4483 43.0458 70.6416C43.4887 70.8349 43.9668 70.9347 44.45 70.9347C44.9333 70.9347 45.4113 70.8349 45.8542 70.6416C46.2971 70.4483 46.6953 70.1656 47.0239 69.8112C47.3524 69.4569 47.6043 69.0385 47.7637 68.5823C47.923 68.126 47.9865 67.6418 47.95 67.16V60.05H48.79V81.5C48.8568 82.3825 49.2545 83.2073 49.9035 83.8091C50.5525 84.4108 51.405 84.7452 52.29 84.7452C53.1751 84.7452 54.0275 84.4108 54.6765 83.8091C55.3256 83.2073 55.7233 82.3825 55.79 81.5V38.19L57.97 51.78C58.0536 52.7082 58.5024 53.5653 59.2179 54.1626C59.9333 54.7599 60.8568 55.0485 61.785 54.965C62.7133 54.8814 63.5703 54.4326 64.1676 53.7171C64.7649 53.0017 65.0536 52.0782 64.97 51.15C64.98 50.9868 64.98 50.8231 64.97 50.66C65.0052 50.5188 65.0052 50.3711 64.97 50.23L61.35 32C61.2341 31.1676 60.8209 30.4054 60.1868 29.8539C59.5527 29.3025 58.7404 28.9992 57.9 29V29Z" stroke="#00008F" stroke-width="2" stroke-linecap="round" stroke-linejoin="round"/>
</svg>

<svg width="96" height="96" viewBox="0 0 96 96" fill="none" xmlns="http://www.w3.org/2000/svg"><path d="M48.44 11a6.92 6.92 0 10-.337 13.836A6.92 6.92 0 0048.44 11v0z" stroke="#00008F" stroke-width="2" stroke-miterlimit="10"/><path d="M57.9 29H38.66a3.47 3.47 0 00-3.44 2.92l-4 18.29a.901.901 0 000 .43c-.01.16-.01.32 0 .48a3.514 3.514 0 007 .62l2.73-13.58v29a3.51 3.51 0 107 0v-7.11h.84V81.5a3.51 3.51 0 007 0V38.19l2.18 13.59a3.514 3.514 0 007-.63c.01-.163.01-.327 0-.49a.889.889 0 000-.43L61.35 32a3.48 3.48 0 00-3.45-3v0z" stroke="#00008F" stroke-width="2" stroke-linecap="round" stroke-linejoin="round"/></svg>
